school/img/icons/fb.svg

<svg width="20" height="30" viewBox="0 0 20 30" fill="none" xmlns="http://www.w3.org/2000/svg">
<path d="M18.6894 16.875L19.7265 11.4457H13.2419V7.92246C13.2419 6.43711 14.1478 4.98926 17.052 4.98926H20V0.366797C20 0.366797 17.3248 0 14.767 0C9.42674 0 5.93611 2.60039 5.93611 7.30781V11.4457H0V16.875H5.93611V30H13.2419V16.875H18.6894Z" fill="white"/>
</svg>

<svg width="20" height="30" fill="none" xmlns="http://www.w3.org/2000/svg"><path d="M18.69 16.875l1.037-5.43h-6.485V7.923c0-1.485.906-2.933 3.81-2.933H20V.367S17.325 0 14.767 0c-5.34 0-8.83 2.6-8.83 7.308v4.138H0v5.429h5.936V30h7.306V16.875h5.447z" fill="#fff"/></svg>
